public/svg/van.svg

<svg width="40" height="28" viewBox="0 0 40 28" fill="none" xmlns="http://www.w3.org/2000/svg">
<path d="M2.28197 1.57469H13.14C13.2318 1.57469 13.318 1.53975 13.3831 1.47627L14.4262 0.45863C14.7294 0.162883 15.1324 0 15.5612 0H32.0257C32.7924 0 33.5042 0.371529 33.9299 0.994024L35.9032 3.88162C36.1831 4.29153 36.2088 4.81561 35.9707 5.25012C35.7327 5.68464 35.2706 5.95431 34.7657 5.95431H26.2799V6.79086H30.626C31.7781 6.79086 32.8146 7.45863 33.2666 8.49251L35.8113 14.311L38.0404 15.181C39.2308 15.6456 40 16.7537 40 18.0046V23.393C40 24.1966 39.3296 24.8506 38.5059 24.8506H35.9122C35.6106 26.6344 34.0187 28 32.1059 28C30.1932 28 28.6013 26.6344 28.2996 24.8506H14.1216C13.8199 26.6344 12.228 28 10.3153 28C8.40252 28 6.81059 26.6344 6.50895 24.8506H1.32812C0.595715 24.8506 0 24.2695 0 23.5549V3.80091C0 2.57315 1.02345 1.57469 2.28197 1.57469ZM32.1059 26.7698C33.5385 26.7698 34.7037 25.633 34.7037 24.2355C34.7037 22.838 33.5385 21.7012 32.1059 21.7012C30.6734 21.7012 29.5082 22.838 29.5082 24.2355C29.5082 25.633 30.6734 26.7698 32.1059 26.7698ZM26.2799 23.6204H28.2986C28.3037 23.5894 28.3102 23.5594 28.3163 23.5289C28.3203 23.5082 28.3238 23.4875 28.3284 23.4669C28.3385 23.4186 28.3501 23.3709 28.3622 23.3232C28.3647 23.3133 28.3667 23.3035 28.3697 23.2936C28.3849 23.2361 28.4015 23.1795 28.4192 23.1234C28.4242 23.1071 28.4303 23.0909 28.4358 23.0742C28.4489 23.0348 28.4625 22.9954 28.4767 22.9566C28.4847 22.9359 28.4928 22.9152 28.5014 22.8946C28.5145 22.8606 28.5276 22.8266 28.5422 22.7932C28.5513 22.771 28.5614 22.7494 28.5715 22.7277C28.5856 22.6957 28.5997 22.6647 28.6149 22.6333C28.626 22.6111 28.6366 22.5895 28.6482 22.5673C28.6633 22.5373 28.6794 22.5068 28.6956 22.4773C28.7072 22.4556 28.7193 22.434 28.7314 22.4123C28.748 22.3828 28.7657 22.3533 28.7834 22.3242C28.796 22.3035 28.8086 22.2829 28.8212 22.2622C28.8404 22.2327 28.8595 22.2037 28.8792 22.1741C28.8923 22.1549 28.9049 22.1357 28.918 22.117C28.9397 22.086 28.9624 22.0555 28.9856 22.025C28.9972 22.0088 29.0088 21.9925 29.0209 21.9768C29.0522 21.9364 29.084 21.8976 29.1163 21.8587C29.1208 21.8528 29.1253 21.8469 29.1304 21.841C29.1677 21.7967 29.2066 21.7534 29.2459 21.7111C29.258 21.6978 29.2706 21.6855 29.2832 21.6727C29.311 21.6437 29.3387 21.6146 29.3675 21.5861C29.3836 21.5703 29.4003 21.5551 29.4164 21.5398C29.4421 21.5152 29.4683 21.4906 29.4951 21.4665C29.5127 21.4508 29.5309 21.435 29.5491 21.4193C29.5753 21.3966 29.6015 21.3745 29.6282 21.3523L29.6858 21.3066C29.7125 21.2854 29.7397 21.2647 29.767 21.2441C29.7866 21.2293 29.8068 21.2146 29.827 21.2003C29.8547 21.1801 29.883 21.1609 29.9117 21.1412C29.9319 21.1279 29.9521 21.1142 29.9723 21.1009C30.002 21.0812 30.0328 21.0625 30.0631 21.0438C30.0827 21.032 30.1024 21.0197 30.1226 21.0079C30.1559 20.9882 30.1902 20.9695 30.2245 20.9508C30.2421 20.941 30.2593 20.9311 30.2764 20.9218C30.3253 20.8962 30.3743 20.8716 30.4237 20.8479C30.4277 20.8465 30.4313 20.8445 30.4353 20.8425C30.4888 20.8174 30.5433 20.7933 30.5977 20.7707C30.6154 20.7633 30.6335 20.7569 30.6512 20.7495C30.6885 20.7348 30.7264 20.72 30.7647 20.7057C30.7864 20.6979 30.8086 20.691 30.8303 20.6831C30.8651 20.6713 30.8999 20.6595 30.9352 20.6486C30.9589 20.6413 30.9826 20.6344 31.0068 20.6275C31.0411 20.6176 31.0754 20.6078 31.1097 20.5989C31.1344 20.5925 31.1591 20.5862 31.1844 20.5802C31.2187 20.5719 31.253 20.5645 31.2878 20.5571C31.313 20.5517 31.3382 20.5463 31.3639 20.5414C31.3992 20.535 31.4346 20.5286 31.4704 20.5232C31.4956 20.5187 31.5203 20.5148 31.546 20.5114C31.5828 20.5059 31.6202 20.5015 31.658 20.4971C31.6817 20.4946 31.7059 20.4912 31.7301 20.4892C31.7715 20.4853 31.8134 20.4823 31.8552 20.4799C31.8759 20.4784 31.8961 20.4764 31.9168 20.4759C31.9798 20.4725 32.0424 20.471 32.1059 20.471C32.1695 20.471 32.232 20.4725 32.2951 20.4759C32.3158 20.4764 32.3359 20.4784 32.3566 20.4799C32.3985 20.4823 32.4404 20.4853 32.4817 20.4892C32.5059 20.4912 32.5301 20.4946 32.5538 20.4971C32.5917 20.5015 32.629 20.5059 32.6658 20.5114C32.6916 20.5148 32.7163 20.5187 32.7415 20.5232C32.7773 20.5286 32.8126 20.535 32.8479 20.5414C32.8736 20.5463 32.8989 20.5517 32.9241 20.5571C32.9589 20.5645 32.9932 20.5719 33.0275 20.5802C33.0527 20.5862 33.0774 20.5925 33.1021 20.5989C33.1364 20.6078 33.1707 20.6176 33.205 20.6275C33.2293 20.6344 33.253 20.6413 33.2767 20.6486C33.312 20.6595 33.3468 20.6713 33.3816 20.6831C33.4033 20.691 33.4255 20.6979 33.4472 20.7057C33.4855 20.72 33.5233 20.7348 33.5607 20.7495C33.5783 20.7569 33.5965 20.7633 33.6141 20.7707C33.6686 20.7933 33.7231 20.8174 33.7765 20.8425C33.7806 20.8445 33.7841 20.8465 33.7881 20.8479C33.8376 20.8716 33.8865 20.8962 33.9354 20.9218C33.9526 20.9311 33.9697 20.941 33.9874 20.9508C34.0217 20.9695 34.056 20.9882 34.0893 21.0079C34.1095 21.0197 34.1291 21.032 34.1488 21.0438C34.1791 21.0625 34.2098 21.0812 34.2396 21.1009C34.2598 21.1142 34.2799 21.1279 34.3001 21.1412C34.3289 21.1609 34.3571 21.1801 34.3849 21.2003C34.405 21.2146 34.4252 21.2293 34.4449 21.2441C34.4721 21.2647 34.4994 21.2854 34.5261 21.3066L34.5836 21.3523C34.6103 21.3745 34.6366 21.3966 34.6628 21.4193C34.681 21.435 34.6991 21.4508 34.7168 21.4665C34.7435 21.4906 34.7697 21.5152 34.7955 21.5398C34.8116 21.5551 34.8282 21.5703 34.8444 21.5861C34.8731 21.6146 34.9009 21.6437 34.9286 21.6727C34.9412 21.6855 34.9538 21.6978 34.966 21.7111C35.0053 21.7534 35.0441 21.7967 35.0815 21.841C35.0865 21.8469 35.091 21.8528 35.0956 21.8587C35.1279 21.8976 35.1596 21.9364 35.1909 21.9768C35.203 21.9925 35.2146 22.0088 35.2262 22.025C35.2494 22.0555 35.2721 22.086 35.2938 22.117C35.3069 22.1357 35.3195 22.1549 35.3327 22.1741C35.3523 22.2037 35.3715 22.2327 35.3907 22.2622C35.4033 22.2829 35.4159 22.3035 35.4285 22.3242C35.4462 22.3533 35.4638 22.3828 35.4805 22.4123C35.4926 22.434 35.5047 22.4556 35.5163 22.4773C35.5324 22.5068 35.5486 22.5373 35.5637 22.5673C35.5753 22.5895 35.5859 22.6111 35.597 22.6333C35.6121 22.6647 35.6262 22.6957 35.6404 22.7277C35.6504 22.7494 35.6605 22.771 35.6696 22.7932C35.6842 22.8266 35.6974 22.8606 35.7105 22.8946C35.719 22.9152 35.7271 22.9359 35.7352 22.9566C35.7493 22.9954 35.7629 23.0348 35.776 23.0742C35.7816 23.0909 35.7876 23.1071 35.7927 23.1234C35.8103 23.1795 35.827 23.2361 35.8421 23.2936C35.8451 23.3035 35.8472 23.3133 35.8497 23.3232C35.8618 23.3709 35.8734 23.4186 35.8835 23.4669C35.888 23.4875 35.8916 23.5082 35.8956 23.5289C35.9016 23.5594 35.9082 23.5894 35.9132 23.6204H38.5059C38.6346 23.6204 38.739 23.5185 38.739 23.393V20.8155H37.7554V19.5852H38.739V18.0046C38.739 17.2596 38.281 16.5997 37.5723 16.3232L35.2126 15.4025H26.2799V23.6204ZM26.2799 14.1722H34.3798L32.1069 8.97526C31.8532 8.39557 31.2721 8.02109 30.626 8.02109H26.2799V14.1722ZM10.3153 26.7698C11.7478 26.7698 12.913 25.633 12.913 24.2355C12.913 22.838 11.7478 21.7012 10.3153 21.7012C10.2704 21.7012 10.226 21.7022 10.1816 21.7047C8.98815 21.7637 8.00454 22.6131 7.77049 23.7252C7.76192 23.7665 7.75385 23.8084 7.74729 23.8502C7.73418 23.9338 7.7256 24.019 7.72106 24.1051C7.71854 24.1484 7.71753 24.1917 7.71753 24.2355C7.71753 25.633 8.88272 26.7698 10.3153 26.7698ZM1.26103 19.5852H2.24464V20.8155H1.26103V23.5549C1.26103 23.5909 1.2913 23.6204 1.32812 23.6204H6.50795C6.51299 23.5899 6.51955 23.5599 6.5256 23.5298C6.52963 23.5087 6.53316 23.4875 6.5377 23.4664C6.54779 23.4191 6.55889 23.3724 6.571 23.3261C6.57402 23.3153 6.57604 23.304 6.57907 23.2931C6.5942 23.2361 6.61084 23.18 6.6285 23.1239C6.63404 23.1066 6.6401 23.0894 6.64565 23.0727C6.65876 23.0338 6.67188 22.9949 6.686 22.957C6.69407 22.9354 6.70265 22.9147 6.71072 22.8936C6.72383 22.8601 6.73745 22.8266 6.75107 22.7937C6.76066 22.771 6.77074 22.7489 6.78083 22.7268C6.79496 22.6957 6.80908 22.6647 6.82421 22.6337C6.8348 22.6111 6.84641 22.589 6.8575 22.5668C6.87263 22.5368 6.88827 22.5073 6.90442 22.4773C6.91652 22.4556 6.92862 22.434 6.94073 22.4123C6.95788 22.3828 6.97503 22.3537 6.99269 22.3247C7.00529 22.3036 7.01791 22.2829 7.03102 22.2622C7.04969 22.2327 7.06886 22.2037 7.08853 22.1751C7.10114 22.1554 7.11425 22.1357 7.12737 22.117C7.14906 22.086 7.17175 22.056 7.19395 22.026C7.20605 22.0093 7.21816 21.9925 7.23077 21.9763C7.26103 21.9374 7.29181 21.8991 7.32358 21.8612C7.32913 21.8543 7.33418 21.8474 7.33972 21.841C7.37756 21.7967 7.41589 21.7534 7.45523 21.7111C7.46784 21.6978 7.48045 21.685 7.49306 21.6717C7.52081 21.6427 7.54855 21.6141 7.5768 21.5861C7.59294 21.5703 7.60958 21.5551 7.62623 21.5393C7.65195 21.5147 7.67768 21.4906 7.70441 21.4665C7.72207 21.4508 7.74073 21.435 7.75889 21.4188C7.78461 21.3966 7.81084 21.3745 7.83758 21.3528C7.85675 21.3371 7.87592 21.3213 7.89559 21.3061C7.92182 21.2854 7.94905 21.2647 7.97629 21.2441C7.99596 21.2293 8.01614 21.2146 8.03632 21.2003C8.06406 21.1801 8.09231 21.1609 8.12055 21.1417C8.14124 21.1279 8.16141 21.1142 8.18159 21.1009C8.21135 21.0812 8.24161 21.0625 8.27188 21.0443C8.29206 21.032 8.31173 21.0197 8.3319 21.0079C8.36519 20.9882 8.39899 20.9695 8.43329 20.9508C8.45095 20.941 8.4681 20.9311 8.48625 20.9218C8.53417 20.8962 8.5826 20.8721 8.63203 20.8489C8.63607 20.847 8.6401 20.8445 8.64464 20.8425C8.69811 20.8174 8.75258 20.7933 8.80706 20.7707C8.82471 20.7633 8.84287 20.7569 8.86053 20.7495C8.89836 20.7348 8.93569 20.72 8.97402 20.7057C8.99571 20.6979 9.0179 20.691 9.0401 20.6831C9.0744 20.6713 9.10921 20.6595 9.14451 20.6486C9.16822 20.6413 9.19243 20.6344 9.21614 20.6275C9.25044 20.6176 9.28474 20.6078 9.31904 20.5989C9.34376 20.5925 9.36847 20.5862 9.39369 20.5802C9.42799 20.5719 9.4623 20.5645 9.4971 20.5571C9.52232 20.5517 9.54754 20.5463 9.57327 20.5414C9.60857 20.535 9.64388 20.5286 9.6797 20.5232C9.70492 20.5187 9.72964 20.5148 9.75536 20.5114C9.79218 20.5059 9.82951 20.5015 9.86734 20.4971C9.89105 20.4946 9.91526 20.4912 9.93947 20.4892C9.98083 20.4853 10.0227 20.4823 10.0646 20.4799C10.0852 20.4784 10.1054 20.4764 10.1261 20.4759C10.1892 20.4725 10.2517 20.471 10.3153 20.471C10.3788 20.471 10.4414 20.4725 10.5044 20.4759C10.5251 20.4764 10.5453 20.4784 10.566 20.4799C10.6078 20.4823 10.6497 20.4853 10.691 20.4892C10.7153 20.4912 10.7395 20.4946 10.7632 20.4971C10.801 20.5015 10.8383 20.5059 10.8752 20.5114C10.9009 20.5148 10.9256 20.5187 10.9508 20.5232C10.9866 20.5286 11.0219 20.535 11.0573 20.5414C11.083 20.5463 11.1082 20.5517 11.1334 20.5571C11.1682 20.5645 11.2025 20.5719 11.2368 20.5802C11.262 20.5862 11.2868 20.5925 11.3115 20.5989C11.3458 20.6078 11.3801 20.6176 11.4144 20.6275C11.4381 20.6344 11.4623 20.6413 11.486 20.6486C11.5213 20.6595 11.5561 20.6713 11.5904 20.6831C11.6126 20.691 11.6348 20.6979 11.6565 20.7057C11.6948 20.72 11.7322 20.7348 11.77 20.7495C11.7876 20.7569 11.8058 20.7633 11.8235 20.7707C11.8779 20.7933 11.9324 20.8174 11.9859 20.8425C11.9904 20.8445 11.9945 20.8465 11.9985 20.8489C12.0479 20.8721 12.0963 20.8962 12.1443 20.9218C12.1624 20.9311 12.1796 20.941 12.1972 20.9508C12.231 20.9695 12.2653 20.9882 12.2986 21.0079C12.3188 21.0197 12.3385 21.032 12.3586 21.0443C12.3889 21.0625 12.4192 21.0812 12.4489 21.1009C12.4691 21.1142 12.4893 21.1279 12.51 21.1417C12.5382 21.1609 12.5665 21.1801 12.5942 21.2003C12.6144 21.2146 12.6346 21.2293 12.6542 21.2441C12.6815 21.2647 12.7087 21.2854 12.7349 21.3061C12.7546 21.3213 12.7738 21.3371 12.7929 21.3528C12.8197 21.3745 12.8459 21.3966 12.8716 21.4193C12.8898 21.435 12.9084 21.4508 12.9261 21.4665C12.9528 21.4906 12.9786 21.5152 13.0048 21.5398C13.0209 21.5551 13.0376 21.5703 13.0537 21.5861C13.082 21.6141 13.1102 21.6432 13.138 21.6722C13.1501 21.685 13.1632 21.6978 13.1753 21.7111C13.2146 21.7534 13.253 21.7967 13.2908 21.841C13.2958 21.8474 13.3009 21.8538 13.3059 21.8597C13.3377 21.8981 13.3695 21.9369 13.3997 21.9768C13.4124 21.9925 13.424 22.0088 13.4361 22.025C13.4588 22.0555 13.4815 22.086 13.5032 22.117C13.5163 22.1357 13.5289 22.1554 13.542 22.1746C13.5617 22.2037 13.5808 22.2327 13.5995 22.2622C13.6126 22.2829 13.6252 22.3035 13.6378 22.3242C13.6555 22.3533 13.6731 22.3828 13.6898 22.4123C13.7019 22.434 13.714 22.4556 13.7256 22.4773C13.7422 22.5068 13.7579 22.5373 13.7735 22.5673C13.7846 22.5895 13.7952 22.6111 13.8063 22.6333C13.8214 22.6647 13.8356 22.6962 13.8497 22.7277C13.8598 22.7494 13.8699 22.771 13.8789 22.7932C13.8936 22.8266 13.9067 22.8606 13.9203 22.8946C13.9284 22.9152 13.9364 22.9359 13.9445 22.9566C13.9591 22.9959 13.9723 23.0353 13.9854 23.0751C13.9909 23.0914 13.997 23.1071 14.002 23.1234C14.0197 23.1795 14.0363 23.2366 14.052 23.2936C14.054 23.3025 14.056 23.3118 14.058 23.3207C14.0706 23.3694 14.0822 23.4181 14.0928 23.4673C14.0974 23.487 14.1009 23.5072 14.1044 23.5274C14.1105 23.5584 14.117 23.5889 14.1226 23.6204H25.0189V5.33919C25.0189 4.99965 25.3014 4.72408 25.6494 4.72408H34.7657C34.7813 4.72408 34.8293 4.72408 34.859 4.66946C34.8888 4.61533 34.8625 4.57645 34.8535 4.56415L32.8807 1.67656C32.6895 1.39705 32.3702 1.23023 32.0257 1.23023H15.5612C15.4694 1.23023 15.3831 1.26517 15.318 1.32865L14.2749 2.34629C13.9718 2.64204 13.5687 2.80492 13.14 2.80492H2.28197C1.71904 2.80492 1.26103 3.25174 1.26103 3.80091V19.5852Z" fill="#101828"/>
<path d="M4.84372 6.2981H12.5562C13.4475 6.2981 14.1729 7.00572 14.1729 7.87525V11.4631C14.1729 12.3326 13.4475 13.0402 12.5562 13.0402H4.84321C3.95192 13.0402 3.22657 12.3326 3.22657 11.4631V7.87525C3.22707 7.00572 3.95242 6.2981 4.84372 6.2981ZM4.48811 11.4626C4.48811 11.6535 4.6475 11.8095 4.84372 11.8095H12.5562C12.7524 11.8095 12.9118 11.654 12.9118 11.4626V7.87476C12.9118 7.68382 12.7524 7.52783 12.5562 7.52783H4.84321C4.647 7.52783 4.4876 7.68333 4.4876 7.87476L4.48811 11.4626Z" fill="#101828"/>
</svg>

<svg xmlns="http://www.w3.org/2000/svg" width="40" height="28" fill="none"><path fill="#101828" d="M2.282 1.575H13.14a.346.346 0 0 0 .243-.099L14.426.46A1.615 1.615 0 0 1 15.561 0h16.465a2.3 2.3 0 0 1 1.904.994l1.973 2.888c.28.41.306.934.068 1.368a1.37 1.37 0 0 1-1.205.704H26.28v.837h4.346a2.87 2.87 0 0 1 2.64 1.702l2.545 5.818 2.23.87c1.19.465 1.959 1.573 1.959 2.824v5.388c0 .804-.67 1.458-1.494 1.458h-2.594C35.611 26.634 34.02 28 32.106 28S28.6 26.634 28.3 24.85H14.122C13.82 26.635 12.228 28 10.315 28c-1.912 0-3.504-1.366-3.806-3.15h-5.18C.595 24.85 0 24.27 0 23.556V3.8c0-1.228 1.023-2.226 2.282-2.226ZM32.106 26.77c1.432 0 2.598-1.137 2.598-2.535 0-1.397-1.166-2.534-2.598-2.534-1.433 0-2.598 1.137-2.598 2.534 0 1.398 1.165 2.535 2.598 2.535Zm-5.826-3.15h2.019l.017-.091.012-.062c.01-.048.022-.096.034-.144l.008-.03c.015-.057.031-.113.05-.17.004-.016.01-.032.016-.049a4.18 4.18 0 0 1 .065-.18l.041-.1.03-.066.043-.095.033-.066.048-.09.035-.065.052-.088.038-.062.058-.088.039-.057c.022-.031.044-.062.068-.092l.035-.048a4.466 4.466 0 0 1 .225-.266l.037-.038.084-.087.05-.046a3.456 3.456 0 0 1 .211-.188l.058-.045a4.16 4.16 0 0 1 .141-.107l.085-.059.06-.04c.03-.02.06-.038.091-.057l.06-.036c.033-.02.067-.038.101-.057l.052-.03a4.71 4.71 0 0 1 .148-.073l.011-.005c.054-.026.108-.05.163-.072.017-.008.036-.014.053-.021l.114-.044.065-.023a4.02 4.02 0 0 1 .458-.126l.076-.016a3.637 3.637 0 0 1 .294-.044l.072-.008.125-.01c.02 0 .041-.003.062-.003a3.497 3.497 0 0 1 .378 0c.02 0 .04.002.062.004.041.002.083.005.125.01.024.001.048.005.072.007a3.454 3.454 0 0 1 .37.06 3.79 3.79 0 0 1 .458.126l.065.023.114.044.053.02c.055.023.11.047.163.073l.011.005c.05.024.099.048.147.074l.052.029c.035.018.069.037.102.057l.06.036.09.057.061.04.085.06a2.876 2.876 0 0 1 .141.106l.058.045a5.09 5.09 0 0 1 .211.188l.05.046.084.087.037.038c.04.042.078.086.115.13l.015.018c.032.039.064.077.095.118l.035.048.068.092.039.057.058.088.038.062.051.088.036.065.048.09.033.066c.015.032.03.063.043.095l.03.065a2.467 2.467 0 0 1 .065.164l.041.117.017.05c.017.056.034.112.05.17l.007.03c.012.047.023.095.033.143l.013.062.017.091h2.593a.23.23 0 0 0 .233-.227v-2.578h-.984v-1.23h.984v-1.58c0-.745-.458-1.405-1.167-1.682l-2.36-.92H26.28v8.217Zm0-9.448h8.1l-2.273-5.197a1.61 1.61 0 0 0-1.481-.954H26.28v6.151ZM10.315 26.77c1.433 0 2.598-1.137 2.598-2.535 0-1.397-1.165-2.534-2.598-2.534-.045 0-.089.001-.133.004-1.194.059-2.177.908-2.412 2.02a2.606 2.606 0 0 0-.049.38 2.24 2.24 0 0 0-.003.13c0 1.398 1.165 2.535 2.597 2.535Zm-9.054-7.185h.984v1.23H1.26v2.74c0 .036.03.065.067.065h5.18l.018-.09c.004-.021.007-.043.012-.064.01-.047.02-.094.033-.14l.008-.033c.015-.057.032-.113.05-.17l.017-.05.04-.116.025-.063a5.547 5.547 0 0 1 .07-.167l.043-.093c.01-.023.022-.045.034-.067l.046-.09.037-.065a4.985 4.985 0 0 1 .186-.295l.067-.091.037-.05c.03-.039.06-.077.093-.115l.016-.02c.038-.044.076-.088.115-.13l.038-.04.084-.085.05-.047.077-.073.055-.047.079-.066.058-.047a4.97 4.97 0 0 1 .14-.106c.028-.02.056-.04.085-.058l.06-.041.09-.057.06-.036.102-.057.053-.03c.048-.025.097-.049.146-.072.004-.002.008-.005.013-.006.053-.026.108-.05.162-.072l.054-.021.113-.044.066-.023a3.45 3.45 0 0 1 .105-.034 3.946 3.946 0 0 1 .353-.091l.075-.017a3.62 3.62 0 0 1 .294-.044l.072-.008.126-.01c.02 0 .04-.003.061-.003a3.5 3.5 0 0 1 .378 0c.021 0 .041.002.062.004.042.002.084.005.125.01.024.001.048.005.072.007a3.526 3.526 0 0 1 .188.026l.106.018.076.016a3.79 3.79 0 0 1 .281.07l.072.022c.035.01.07.022.104.034l.066.023.114.044.053.02a3.966 3.966 0 0 1 .321.152l.053.029.102.057.06.036.09.057.061.04.084.06a2.428 2.428 0 0 1 .14.105l.059.047c.027.021.053.044.079.066l.054.047.079.074.049.046.084.086.037.04a4.111 4.111 0 0 1 .225.265l.036.048c.023.03.046.061.067.092l.039.058a3.468 3.468 0 0 1 .148.237l.036.065.047.09.033.066.044.095.029.065c.015.034.028.068.041.102l.024.062c.015.039.028.078.041.118l.017.048c.018.056.034.114.05.17l.006.028c.013.048.024.097.035.146l.011.06.019.093h10.896V5.34c0-.34.282-.616.63-.616h9.117c.015 0 .063 0 .093-.055a.092.092 0 0 0-.006-.105l-1.972-2.887a1.033 1.033 0 0 0-.855-.447H15.56a.346.346 0 0 0-.243.099l-1.043 1.017a1.615 1.615 0 0 1-1.135.459H2.282a1.01 1.01 0 0 0-1.021.996v15.784Z"/><path fill="#101828" d="M4.844 6.298h7.712c.892 0 1.617.708 1.617 1.577v3.588c0 .87-.726 1.577-1.617 1.577H4.843c-.891 0-1.616-.707-1.616-1.577V7.875c0-.87.725-1.577 1.617-1.577Zm-.356 5.165c0 .19.16.347.356.347h7.712a.352.352 0 0 0 .356-.347V7.875c0-.191-.16-.347-.356-.347H4.843a.352.352 0 0 0-.355.347v3.588Z"/></svg>
